X:1
T:My Dearest Friend
T:My Dearest Friend
T:Anthony Johnson Showalter
T:Mrs. J. M. Hunter, 1901
T:Public Domain Courtesy of the Cyber Hymnal™
T:Public Domain Courtesy of the Cyber Hymnal™
C:Anthony Johnson Showalter
Z:Public Domain
Z:Courtesy of the Cyber Hymnal™
%%score ( 1 2 ) ( 3 4 )
L:1/8
Q:1/4=98
M:4/4
K:Eb
V:1 treble 
V:2 treble 
V:3 bass 
V:4 bass 
V:1
 [EB]2 | [EB]3 [EG] [Ec][EB]E[DF] | [EG]6 [EG]2 | [DF]3 [FB] (B=A) (GA) | [DB]6 [AB]2 | %5
w: 1.~I|have a friend, a pre- cious|friend, Who|keeps my day * by *|day, On|
w: 2.~I|need not feel one anx- ious|thought, Or|know one press- * ing *|care, But|
w: 3.~O|sin- ner, take Him for your|friend, His|grace is free * to *|all; He|
w: 4.~’Tis|sweet to feel His pre- sence|near, And|on His strength * re- *|ly, To|
w: 5.~’Tis|sweet to work for such a|friend; Dear|Lord, our ef- * forts *|guide, For|
 [GB]3 G [Ae][Ad][Bf][Ee] | F6 [^Fc]2 | [GB]3 [EG] [DA]2 [B,D]2 | [B,E]4- [B,E] ||"^Refrain" Bdc | %10
w: whom my hopes of Heav’n de-|pend, Who|is my guide and|stay. *||
w: that I may— His word hath|taught— Take|un- to Him in|prayer. *||
w: will the trust- ing soul de-|fend, Nor|suf- fer it to|fall. *|My dear- est|
w: know that He thro’ life will|cheer, Sup-|port when death is|nigh. *||
w: if Thou wilt Thy bless- ing|send, The|work shall e’er a-|bide. *||
 (z [DA])Bd c x3 | z [EG][EG][DF] [EG] x3 | A4- [DA][DB][Ec][Fd] | B4- !fermata![FB][EB][Ge][Ad] | %14
w: ||||
w: ||||
w: * friend, my tru-|* est friend, My|* friend in life, my|* friend in * death,|
w: ||||
w: ||||
 e4- [Ee][EG][DA][EB] | c4- [Ec][^Fe][Fd][Fc] | [GB]3 [GB] [Ac]2 [Ad]2 | !fermata!e6 |] %18
w: ||||
w: ||||
w: * * Un- to His|* name let praise as-|* cend, With glad,|with|
w: ||||
w: ||||
V:2
 x2 | x6 E x | x8 | x4 E2 E2 | x8 | x3 G x4 | ^F6 x2 | x8 | x5 || x3 | A4- D D D x | G4- E E E x | %12
 F D D D x4 | D D D E x4 | B E E E x4 | E E E E x4 | x8 | (GGAA G2) |] %18
V:3
 [E,G,]2 | [E,G,]3 [E,B,] [E,A,][E,G,][C,G,][B,,B,] | [E,B,]6 [E,B,]2 | %3
w: ~|~ ~ ~ ~ ~ ~|~ ~|
 [F,A,]3 [F,D] [F,C]2 [F,C]2 | [B,,B,]6 [B,,D]2 | [E,E]3 [E,B,] [F,B,][F,B,][G,B,][G,B,] | %6
w: ~ ~ ~ ~|~ ~|~ ~ ~ ~ ~ ~|
 [A,C]6 [=A,E]2 | [B,E]3 B, [B,,B,]2 [B,,A,]2 | [E,G,]4- [E,G,] || z3 | %10
w: ~ ~|~ ~ ~ ~|~ *||
 z [B,,F,B,][B,,F,B,][B,,F,B,] [B,,F,B,] z3 | z [E,B,][E,B,][E,B,] [E,B,] z3 | %12
w: My dear- est friend,|my tru- est friend,|
 z [F,B,][F,B,][F,B,] [F,B,][F,B,][F,=A,][F,A,] | B,F,F,G, !fermata![B,,A,][E,G,][E,B,][F,B,] | %14
w: my friend in life, ~ ~ ~|~ my friend in Un- to His name|
 B,B,B,B, [G,B,][E,B,][F,B,][G,B,] | A,_A,_A,_A, _A,[=A,C][A,D][A,E] | %16
w: * let praise as- ~ ~ ~ ~|~ ~ ~ ~ ~ ~ ~ ~|
 [B,E]3 [B,E] [B,,D]2 [B,,B,]2 | !fermata!B,B,CC !fermata!B,2 |] %18
w: ~ ~ ~ ~|ex- ult- ant breath *|
V:4
 x2 | x8 | x8 | x8 | x8 | x8 | x8 | x3 B, x4 | x5 || x3 | x8 | x8 | x8 | B,,4- x4 | G,4- x4 | %15
 =A,=A,=A,=A, =A, x3 | x8 | E,6 |] %18

